X:1
T:The Braes o' Killicrankie
M:2/4
L:1/16
K:A
A-B| c2c2d-cB-A| d4 d2c-B| c2c2d-cB-A| c2e2 e2A-B| c2c2d-cB-A| d4 d2c-B|\
c-de-c B3 A| F2A2 A2|c-d| e2E2 E2F-=G| F2E-F D2c-d| e2E2 e2E2| c2e2 e2c-d|\
 e2E2 E2F-=G|A-=GF-E D2 dd|c-de-c B3 A| F2A2 A2||
